X: 26088
T: McDonald's
R: reel
M: 4/4
K: Edorian
|:E2 EF BEEF|E2 EF dFDF|E2 EF EFGA|(3Bcd ec dD D2:|
|:Eeef eEEF|Eeef dDDF|Eeed Bcde|(3fga ec dD D2:|

